X: 101
T: Troop
B: C. & S. Thompson, "The Compleat Tutor for the Fife" c.1760 p.10 #1
S: http://imslp.org/wiki/The_Compleat_Tutor_for_the_Fife_(Anonymous)
Z: 2014 John Chambers <jc:trillian.mit.edu>
N: The rhythms isn't right between the two strains.
M: 2/4
L: 1/8
K: G
% - - - - - - - - - - - - - - - - - - - - - - - - -
c |\
(3Bcd (3gfg | (3dcB Ac | (3Bcd (3gfg | d3 :|
|:\
de d2 | cB A2 | dedc | BA G2 :|
% - - - - - - - - - - - - - - - - - - - - - - - - -
